X: 220
T: The Young Black Cow
B: O'Neill's 220
N: "Slow"
Z: 1997 by John Chambers <jc@trillian.mit.edu>
N: The first section has a segno over the first bar.
N: The first section ends with a fermata over the double bar.
N: The second section ends with a segno over the double bar.
M: 3/4
L: 1/8
K:Gm
GF \
|D2 G2 GF|G2 A2 c2|defedc|A4 dB \
|A2 G2 GF|G3 A B2|A2 G2 FD|D4 D2|
|D2 G2 GF|G2 A2 c2|defedc|A4 fg \
|ga2 gf ed/c/|d3 e f2|G2 G2 BAG/F/|G4||
||d2 \
|d2 g2 gf|g3 a b2|a2 g2 fd|d4 e2 \
|f3 g fd|f2 g2 ag|fdcBAG|F4 GF||
